icons/hamburger.svg

<svg xmlns="http://www.w3.org/2000/svg" width="96" height="96"><path d="M16 76c-1.1 0-2.1-.4-2.8-1.2-.8-.7-1.2-1.7-1.2-2.8 0-1.1.4-2.1 1.2-2.8.7-.8 1.7-1.2 2.8-1.2h64c1.1 0 2.1.4 2.8 1.2.8.7 1.2 1.7 1.2 2.8 0 1.1-.4 2.1-1.2 2.8-.7.8-1.7 1.2-2.8 1.2H16zm0-24c-1.1 0-2.1-.4-2.8-1.2-.8-.7-1.2-1.7-1.2-2.8 0-1.1.4-2.1 1.2-2.8.7-.8 1.7-1.2 2.8-1.2h64c1.1 0 2.1.4 2.8 1.2.8.7 1.2 1.7 1.2 2.8 0 1.1-.4 2.1-1.2 2.8-.7.8-1.7 1.2-2.8 1.2H16zm0-24c-1.1 0-2.1-.4-2.8-1.2-.8-.7-1.2-1.7-1.2-2.8 0-1.1.4-2.1 1.2-2.8.7-.8 1.7-1.2 2.8-1.2h64c1.1 0 2.1.4 2.8 1.2.8.7 1.2 1.7 1.2 2.8 0 1.1-.4 2.1-1.2 2.8-.7.8-1.7 1.2-2.8 1.2H16z" fill-rule="evenodd" fill="#454545"/></svg>

<?xml version="1.0" standalone="no"?><!-- Generator: Gravit.io --><svg xmlns="http://www.w3.org/2000/svg" xmlns:xlink="http://www.w3.org/1999/xlink" width="96" height="96"><path d=" M 16 76 C 14.9 76 13.9 75.6 13.2 74.8 C 12.4 74.1 12 73.1 12 72 C 12 70.9 12.4 69.9 13.2 69.2 C 13.9 68.4 14.9 68 16 68 L 80 68 C 81.1 68 82.1 68.4 82.8 69.2 C 83.6 69.9 84 70.9 84 72 C 84 73.1 83.6 74.1 82.8 74.8 C 82.1 75.6 81.1 76 80 76 L 16 76 Z  M 16 52 C 14.9 52 13.9 51.6 13.2 50.8 C 12.4 50.1 12 49.1 12 48 C 12 46.9 12.4 45.9 13.2 45.2 C 13.9 44.4 14.9 44 16 44 L 80 44 C 81.1 44 82.1 44.4 82.8 45.2 C 83.6 45.9 84 46.9 84 48 C 84 49.1 83.6 50.1 82.8 50.8 C 82.1 51.6 81.1 52 80 52 L 16 52 Z  M 16 28 C 14.9 28 13.9 27.6 13.2 26.8 C 12.4 26.1 12 25.1 12 24 C 12 22.9 12.4 21.9 13.2 21.2 C 13.9 20.4 14.9 20 16 20 L 80 20 C 81.1 20 82.1 20.4 82.8 21.2 C 83.6 21.9 84 22.9 84 24 C 84 25.1 83.6 26.1 82.8 26.8 C 82.1 27.6 81.1 28 80 28 L 16 28 Z " fill-rule="evenodd" fill="#454545" stroke="none"/><mask id="_mask_nA1gLbQNX3lXV4O0X6ATXKu3B7aHGsyo"><path d=" M 16 76 C 14.9 76 13.9 75.6 13.2 74.8 C 12.4 74.1 12 73.1 12 72 C 12 70.9 12.4 69.9 13.2 69.2 C 13.9 68.4 14.9 68 16 68 L 80 68 C 81.1 68 82.1 68.4 82.8 69.2 C 83.6 69.9 84 70.9 84 72 C 84 73.1 83.6 74.1 82.8 74.8 C 82.1 75.6 81.1 76 80 76 L 16 76 Z  M 16 52 C 14.9 52 13.9 51.6 13.2 50.8 C 12.4 50.1 12 49.1 12 48 C 12 46.9 12.4 45.9 13.2 45.2 C 13.9 44.4 14.9 44 16 44 L 80 44 C 81.1 44 82.1 44.4 82.8 45.2 C 83.6 45.9 84 46.9 84 48 C 84 49.1 83.6 50.1 82.8 50.8 C 82.1 51.6 81.1 52 80 52 L 16 52 Z  M 16 28 C 14.9 28 13.9 27.6 13.2 26.8 C 12.4 26.1 12 25.1 12 24 C 12 22.9 12.4 21.9 13.2 21.2 C 13.9 20.4 14.9 20 16 20 L 80 20 C 81.1 20 82.1 20.4 82.8 21.2 C 83.6 21.9 84 22.9 84 24 C 84 25.1 83.6 26.1 82.8 26.8 C 82.1 27.6 81.1 28 80 28 L 16 28 Z " fill-rule="evenodd" fill="white" stroke="none"/></mask><path d=" M 16 76 C 14.9 76 13.9 75.6 13.2 74.8 C 12.4 74.1 12 73.1 12 72 C 12 70.9 12.4 69.9 13.2 69.2 C 13.9 68.4 14.9 68 16 68 L 80 68 C 81.1 68 82.1 68.4 82.8 69.2 C 83.6 69.9 84 70.9 84 72 C 84 73.1 83.6 74.1 82.8 74.8 C 82.1 75.6 81.1 76 80 76 L 16 76 Z  M 16 52 C 14.9 52 13.9 51.6 13.2 50.8 C 12.4 50.1 12 49.1 12 48 C 12 46.9 12.4 45.9 13.2 45.2 C 13.9 44.4 14.9 44 16 44 L 80 44 C 81.1 44 82.1 44.4 82.8 45.2 C 83.6 45.9 84 46.9 84 48 C 84 49.1 83.6 50.1 82.8 50.8 C 82.1 51.6 81.1 52 80 52 L 16 52 Z  M 16 28 C 14.9 28 13.9 27.6 13.2 26.8 C 12.4 26.1 12 25.1 12 24 C 12 22.9 12.4 21.9 13.2 21.2 C 13.9 20.4 14.9 20 16 20 L 80 20 C 81.1 20 82.1 20.4 82.8 21.2 C 83.6 21.9 84 22.9 84 24 C 84 25.1 83.6 26.1 82.8 26.8 C 82.1 27.6 81.1 28 80 28 L 16 28 Z " fill-rule="evenodd" fill="none" stroke="none" stroke-width="16" mask="url(#_mask_nA1gLbQNX3lXV4O0X6ATXKu3B7aHGsyo)"/></svg>
